X:5028
T:Emma
T:Muistoja Karpaateilta
R:Waltz
C:Trad.
O:Finland
Z:Paul Hardy's Session Tunebook 2022 (see www.paulhardy.net). Creative Commons cc by-nc-sa licenced.
M:3/4
L:1/4
Q:1/4=140
K:Em
E/2G/2|"Em"B>cB|G E E/G/|B c/B/A/B/|G E G|"B"F2 F/2G/2|A G F|"Em"E>F G/2A/2|B2 E/2G/2|
B>cB|G E E/G/|B c/B/A/B/|G E G|"B7"F2 F/2G/2|A G F|"Em"E>F G/2F/2|E2:|
|:B|"C"e>e e|e d c|"G"B>B B|B A G|"B"F2 F/2G/2|A G F|"Em"E>F G/2A/2|B>E G/2B/2|
"Am"c>c c|c d c|"Em"B>A B/2c/2|B A G|"B7"F2 F/2G/2|A G F|"Em"E>F G/2F/2|E2:|

